X: 82
T: Zhai huajiao
%%abc-version 2.0
%%abcx-abcm2ps-target-version 5.9.1 (29 Sep 2008)
%%abc-creator hum2abc beta
%%abcx-conversion-date 2013/10/02 07:52:29
%%abc-edited-by Helmut Schaffrath
%%humdrum-veritas 2663053283
%%humdrum-veritas-data 786859890
%%continueall 1
%%barnumbers 0
L: 1/16
M: 2/4
K: A
e2 c e2< B2 c [I:setbarnb 1]| 
e f c e B2 c B | 
A2> B2 e2 c B | 
c B B FA4 | 
A2> B2 e2 c e | 
B2 e2 B c B A | 
E F A2 c B A G | 
G F F CE4 | 
A B c e B c B A | 
E F A2 c B A G | 
G F F CE4 |]  



